X:204
T: Osterlied
N: A0556
O: Europa, Mitteleuropa, Deutschland
N: N Herman Die Sontags - Evangelia uber das gantze Jahr... 1560
R: Romanze, Ballade, Lied, religioeses Lied
M: 3/2
L: 1/2
K: F
f | f2f | e2e | f2d | c2
c | def | e2d | c2B | A2
A | A2A | c2c | BAG | F2
c | c2c | c2c | BAG | F2

